X:5335
T:Quadrille. JMT120
O:england
M:6/8
L:1/8
S:J.Moore,Tyneside,1841.(84b)
R:Quadrille
A:Northumbria
K:G
d|d2-gB2d|G-BG DGB|d-cA d-cA|e2-d B2d|"for"d2-gB2-d|
G-BG DGB|dcAe2d|G3G2:||:"pia"B|c-BA e-dc|d2Bg2g|
fed cBA|(Bcd)A2B|"for"cBA edc|d2Bg2g|f-ed c-BA|G3"DC"G2:|]


